svg/Gray/explode.svg

<svg viewBox="0 0 48 48" xmlns="http://www.w3.org/2000/svg"><g fill="none"><rect height="44" rx="2.73524" width="44" x="2" y="2"/><circle cx="24" cy="24" r="22.009073" stroke="#0066b3" stroke-width=".75"/><path d="m9.1899296 16.586719a16.561852 16.561852 0 0 1 22.1959204-7.4104886 16.561852 16.561852 0 0 1 7.451568 22.1821626 16.561852 16.561852 0 0 1 -22.16833 7.492622 16.561852 16.561852 0 0 1 -7.5336501-22.15442" stroke="#0066b3" stroke-linecap="round" stroke-width=".75"/><path d="m15.161165 32.838835 17.67767-17.67767" stroke="#0066b3" stroke-linecap="round" stroke-width="3"/><path d="m32.838835 32.838835-17.67767-17.67767" stroke="#0066b3" stroke-linecap="round" stroke-width="3"/></g><path d="m22.798179 45.555065c-2.963549-.153706-5.692654-.884474-8.449166-2.262419-2.176597-1.088053-3.815084-2.271658-5.5785301-4.029799-3.444034-3.433673-5.5216843-7.625692-6.1959108-12.501325-.1575434-1.139266-.179415-4.115549-.0384922-5.238002.5133852-4.089121 2.061783-7.791849 4.5993199-10.998482.7449215-.9413429 2.4249042-2.6260685 3.3532192-3.3626871 3.263791-2.5898205 6.965977-4.133107 11.077583-4.6177814 1.278585-.150719 3.58901-.150719 4.867595 0 4.110783.4845774 7.805266 2.024369 11.077583 4.6169305.84962.6731296 2.639029 2.4542779 3.305961 3.2907 2.480678 3.111104 4.050548 6.784766 4.609309 10.786276.176337 1.262819.176337 4.260228 0 5.523046-.563677 4.036712-2.065067 7.558168-4.570905 10.720887-.750377.94708-2.42149 2.619646-3.379928 3.382866-2.143018 1.706521-4.838439 3.111627-7.392811 3.853826-2.346334.68175-4.809135.964367-7.284827.835964zm3.6783-4.762427c7.633752-1.176614 13.456304-7.177731 14.38487-14.826023.106574-.877815.106909-3.040901.000583-3.896818-.922457-7.427262-6.30117-13.2669975-13.54782-14.7090569-1.855224-.3691833-4.023528-.4237912-5.827011-.146751-7.935254 1.2189657-13.9256532 7.7493289-14.4130404 15.7122059-.479072 7.827026 4.3715854 14.903129 11.8347104 17.264388.880611.278616 2.429583.601552 3.379544.70458.857263.09297 3.309207.03295 4.188164-.102525z" fill="#0066b3" fill-opacity=".35" fill-rule="evenodd"/></svg>

<?xml version="1.0" encoding="UTF-8" standalone="no"?>
<svg
   viewBox="0 0 48 48"
   version="1.1"
   id="svg16"
   sodipodi:docname="explode.svg"
   inkscape:version="1.1.2 (0a00cf5339, 2022-02-04, custom)"
   xmlns:inkscape="http://www.inkscape.org/namespaces/inkscape"
   xmlns:sodipodi="http://sodipodi.sourceforge.net/DTD/sodipodi-0.dtd"
   xmlns="http://www.w3.org/2000/svg"
   xmlns:svg="http://www.w3.org/2000/svg">
  <defs
     id="defs20">
    <inkscape:path-effect
       effect="bspline"
       id="path-effect19404"
       is_visible="true"
       lpeversion="1"
       weight="33.333333"
       steps="2"
       helper_size="0"
       apply_no_weight="true"
       apply_with_weight="true"
       only_selected="false" />
  </defs>
  <sodipodi:namedview
     id="namedview18"
     pagecolor="#ffffff"
     bordercolor="#666666"
     borderopacity="1.0"
     inkscape:pageshadow="2"
     inkscape:pageopacity="0.0"
     inkscape:pagecheckerboard="0"
     showgrid="false"
     inkscape:zoom="13.729167"
     inkscape:cx="22.943854"
     inkscape:cy="21.305007"
     inkscape:window-width="1920"
     inkscape:window-height="1021"
     inkscape:window-x="1366"
     inkscape:window-y="35"
     inkscape:window-maximized="1"
     inkscape:current-layer="svg16" />
  <rect
     height="44"
     rx="2.73524"
     width="44"
     x="2"
     y="2"
     id="rect2"
     style="fill:none" />
  <circle
     stroke-width="0.75"
     id="circle4"
     style="fill:none;stroke:#0066b3"
     r="22.009073"
     cy="24"
     cx="24" />
  <path
     stroke-width="0.75"
     id="circle4-2"
     style="fill:none;stroke:#0066b3;stroke-linecap:round"
     sodipodi:type="arc"
     sodipodi:cx="24"
     sodipodi:cy="24"
     sodipodi:rx="16.561852"
     sodipodi:ry="16.561852"
     sodipodi:start="3.6056856"
     sodipodi:end="3.5982802"
     sodipodi:arc-type="arc"
     d="M 9.1899296,16.586719 A 16.561852,16.561852 0 0 1 31.38585,9.1762304 16.561852,16.561852 0 0 1 38.837418,31.358393 16.561852,16.561852 0 0 1 16.669088,38.851015 16.561852,16.561852 0 0 1 9.1354379,16.696595"
     sodipodi:open="true" />
  <path
     style="fill:none;stroke:#0066b3;stroke-width:3;stroke-linecap:round;stroke-linejoin:miter;stroke-miterlimit:4;stroke-dasharray:none;stroke-opacity:1"
     d="m 15.161165,32.838835 17.67767,-17.67767"
     id="path1198" />
  <path
     style="fill:none;stroke:#0066b3;stroke-width:3;stroke-linecap:round;stroke-linejoin:miter;stroke-miterlimit:4;stroke-dasharray:none;stroke-opacity:1"
     d="M 32.838835,32.838835 15.161165,15.161165"
     id="path1198-2" />
  <path
     style="fill:#0066b3;fill-opacity:0.34999999;fill-rule:evenodd;stroke:none;stroke-width:0.218513;stroke-linecap:round;stroke-linejoin:round;stroke-miterlimit:4;stroke-dasharray:none;stroke-opacity:1;paint-order:fill markers stroke"
     d="M 22.798179,45.555065 C 19.83463,45.401359 17.105525,44.670591 14.349013,43.292646 12.172416,42.204593 10.533929,41.020988 8.7704829,39.262847 5.3264489,35.829174 3.2487986,31.637155 2.5745721,26.761522 2.4170287,25.622256 2.3951571,22.645973 2.5360799,21.52352 3.0494651,17.434399 4.5978629,13.731671 7.1353998,10.525038 7.8803213,9.5836951 9.560304,7.8989695 10.488619,7.1623509 13.75241,4.5725304 17.454596,3.0292439 21.566202,2.5445695 c 1.278585,-0.150719 3.58901,-0.150719 4.867595,0 4.110783,0.4845774 7.805266,2.024369 11.077583,4.6169305 0.84962,0.6731296 2.639029,2.4542779 3.305961,3.2907 2.480678,3.111104 4.050548,6.784766 4.609309,10.786276 0.176337,1.262819 0.176337,4.260228 0,5.523046 -0.563677,4.036712 -2.065067,7.558168 -4.570905,10.720887 -0.750377,0.94708 -2.42149,2.619646 -3.379928,3.382866 -2.143018,1.706521 -4.838439,3.111627 -7.392811,3.853826 -2.346334,0.68175 -4.809135,0.964367 -7.284827,0.835964 z m 3.6783,-4.762427 c 7.633752,-1.176614 13.456304,-7.177731 14.38487,-14.826023 0.106574,-0.877815 0.106909,-3.040901 5.83e-4,-3.896818 C 39.939475,14.642535 34.560762,8.8027995 27.314112,7.3607401 25.458888,6.9915568 23.290584,6.9369489 21.487101,7.2139891 13.551847,8.4329548 7.5614478,14.963318 7.0740606,22.926195 c -0.479072,7.827026 4.3715854,14.903129 11.8347104,17.264388 0.880611,0.278616 2.429583,0.601552 3.379544,0.70458 0.857263,0.09297 3.309207,0.03295 4.188164,-0.102525 z"
     id="path6960" />
</svg>
